assets/gcpproducerportal/original.svg

<svg height="24" width="24" xmlns="http://www.w3.org/2000/svg"><g fill-rule="evenodd"><path d="m2 4.7h20v-2.4h-20z" fill="#5c85de"/><path d="m19.5 21.8h2.5v-7.4h-2.5zm-7.5-7.4v4.9h-7.5v-4.9h-2.5v7.4h12.5v-7.4z" fill="#3367d6"/><path d="m2 5.9-1.2 6.1v2.4h22.4v-2.4l-1.2-6.1zm2.1 2.4h15.9l.7 3.7h-17.4z" fill="#5c85de"/></g></svg>

<svg xmlns="http://www.w3.org/2000/svg" width="24" height="24"><g fill-rule="evenodd"><path fill="#5c85de" d="M2 4.7h20V2.3H2z"/><path fill="#3367d6" d="M19.5 21.8H22v-7.4h-2.5zM12 14.4v4.9H4.5v-4.9H2v7.4h12.5v-7.4z"/><path fill="#5c85de" d="M2 5.9.8 12v2.4h22.4V12L22 5.9zm2.1 2.4H20l.7 3.7H3.3z"/></g></svg>
